X: 1139
T: Terry Hiegh Ho the Grinder. 1st Setting.
B:O'Neill's Music of Ireland
N:O'Neill's - 1139
Z:Transcribed by Stephen Foy (shf@access.digex.net)
Z:abc 1.6
M:9/8
R:slipjig
K:G
ABA A2 B G3 | ABA A2 B d2 B | ABA A2 B G3 | GAG GAB d2 B :|
gfg edc BAG | gfg efg a2 f | gfg edc BAG | ABA A2 B d2 B |
gfg edc BAG | gfg efg a2 a | bag agf edB | ABA A2 B d2 B ||


